X: 1162
T: An Cat Is A Máthair
R: jig
M: 6/8
K: Gmajor
|:e|dBG G2D|GBd e2d|cAA A2G|Acd e2g|
dgg bgg|aga bgd|ege dBG|AGG G2:|
|:e|dgg g2b|aga bge|dgg g2b|aba age|
dgg bgg|aga bgd|ege dBG|AGG G2:|

